X:1
T:Title
%%score { ( 1 3 4 ) | ( 2 5 ) }
L:1/8
M:3/4
K:Bb
V:1 treble nm="Grand Piano"
V:3 treble 
V:4 treble 
V:2 bass 
V:5 bass 
V:1
 z2 z2[Q:1/4=92] [B,D]>[CE] | [DF]3 [DG] [DB][DG] | B2 A2 E>F | A3 G FE | D4 D>[CE] | %5
 [DF]3 [DG] [DB][DG] | B2 A2 A>A | [=Ec]3 [EG] [DEB][CEA] | F4 F>F | e3 d c=B | z2 F2 z2 | %11
 [Fd]3 [Ec] [DB][CA] | [DB]4 [FB]>[FB] | [Gc]3 [GB] [FA][EG] | [DB]2 [DF]2 [B,D]>[CE] | %15
 [DF]>[DG] [EF]2 [Ec]2 |[M:2/4] [B,DB]4 |[M:1/4] A>B |[M:3/4] c4 z2 | [Fd]2 [DB]2 [FB][FB] | %20
 [GB]>[Gc] [GB]2 [EG]2 | [DF]4 [B,D]>[CE] | [DF]3 [DB] [Fd][Fd] | [Ge]2 G2 B>G | F>B B2 c2 | %25
[M:2/4] [DB]4 |] %26
V:2
 z2 z2 [B,,F,]>[B,,F,] | [B,,B,]3 [B,,B,] [B,,B,][B,,B,] | [F,CE]2 [F,CE]2 [F,A,]>[F,A,E] | %3
 [F,CE]3 [F,CE] [F,A,D][F,A,C] | [B,,F,B,]4 [B,,F,B,]>[B,,F,] | [B,,B,]3 [B,,B,] [B,,B,][B,,B,] | %6
 [F,CE]2 [F,CE]2 [F,CE]>[F,CE] | [C,C]3 [C,C] C,C, | [F,A,]4 [F,A,]>[F,A,] | %9
 [F,CF]3 [F,B,F] [F,A,F][F,_A,F] | [F,A,F]2 .[F,A,]2 [D,B,]>[C,A,] | %11
 [B,,B,]3 [B,,B,] [B,,B,][B,,B,] | [B,,B,]4 [D,B,]>[D,B,] | [E,B,]3 [E,E] [E,E][E,B,] | %14
 [B,,B,]2 [B,,B,]2 [B,,F,]>[B,,F,] | [B,,B,]>[B,,B,] [F,A,]2 [F,A,]2 |[M:2/4] B,,4 |[M:1/4] C>D | %18
[M:3/4] E->[F,E-] EE DE | [B,,B,]2 [B,,F,]2 [D,B,][D,B,] | [E,E]>[E,E] [E,E]2 [E,B,]2 | %21
 [B,,B,]4 [B,,F,]>[B,,F,] | [B,,B,]3 [B,,B,] [B,,B,][B,,B,] | [E,B,]2 [E,B,E]2 [=E,G,_D]>[E,B,D] | %24
 [F,B,D]>[F,B,D] [F,B,D]2 [F,A,E]2 |[M:2/4] [B,,F,B,]4 |] %26
V:3
 x6 | x6 | x6 | x6 | x6 | x6 | x6 | x6 | x6 | x6 | c2 z E, F>F | x6 | x6 | x6 | x6 | x6 | %16
[M:2/4] x4 |[M:1/4] x2 |[M:3/4] z z/ A,/ z c Bc | x6 | x6 | x6 | x6 | x6 | x6 |[M:2/4] x4 |] %26
V:4
 x6 | x6 | x6 | x6 | x6 | x6 | x6 | x6 | x6 | x6 | x6 | x6 | x6 | x6 | x6 | x6 |[M:2/4] x4 | %17
[M:1/4] x2 |[M:3/4] z2 A,2 z2 | x6 | x6 | x6 | x6 | x6 | x6 |[M:2/4] x4 |] %26
V:5
 x6 | x6 | x6 | x6 | x6 | x6 | x6 | x6 | x6 | x6 | x6 | x6 | x6 | x6 | x6 | x6 |[M:2/4] x4 | %17
[M:1/4] x2 |[M:3/4] [F,A,]2 F,2 [F,A,]2 | x6 | x6 | x6 | x6 | x6 | x6 |[M:2/4] x4 |] %26

